assets/icons/YouTubeIcon.svg

<?xml version="1.0" encoding="UTF-8"?>
<svg xmlns="http://www.w3.org/2000/svg" width="100" height="100" viewBox="0 0 100 100" fill="none"> <path d="M74.3744 39.064C73.9003 35.3205 71.7378 32.9724 67.8993 32.6256C63.5042 32.2285 53.99 32 49.577 32C40.5503 32 36.5164 32.2205 32.2477 32.6623C28.1798 33.0826 26.399 34.8903 25.699 38.6222C25.2088 41.2373 25 43.6867 25 49.4754C25 54.6752 25.2456 57.9455 25.6256 60.6969C26.1481 64.4754 28.7417 66.5985 32.5426 66.9149C36.9645 67.2832 45.8227 67.4669 50.2025 67.4669C54.4345 67.4669 63.9586 67.2465 68.1932 66.7679C71.9833 66.3395 73.7856 64.3149 74.3744 60.5867C74.3744 60.5867 75 56.5026 75 49.4386C75 45.4164 74.706 41.6756 74.3744 39.064ZM44.6836 56.7607V42.3872L58.3698 49.5004L44.6836 56.7607Z" fill="white"/> <rect x="1" y="1" width="98" height="98" stroke="white" stroke-width="2"/> </svg>

<svg xmlns="http://www.w3.org/2000/svg" width="100" height="100" fill="none"><path d="M74.374 39.064c-.474-3.743-2.636-6.092-6.475-6.438C63.504 32.228 53.99 32 49.577 32c-9.027 0-13.06.22-17.33.662-4.067.42-5.848 2.228-6.548 5.96-.49 2.615-.699 5.065-.699 10.853 0 5.2.246 8.47.626 11.222.522 3.778 3.116 5.901 6.917 6.218 4.422.368 13.28.552 17.66.552 4.231 0 13.756-.22 17.99-.7 3.79-.427 5.593-2.452 6.181-6.18 0 0 .626-4.084.626-11.148 0-4.023-.294-7.763-.626-10.375Zm-29.69 17.697V42.387L58.37 49.5l-13.686 7.26Z" fill="#fff"/><path stroke="#fff" stroke-width="2" d="M1 1h98v98H1z"/></svg>
